img/Index/icon-home.svg

<svg xmlns="http://www.w3.org/2000/svg" width="75" height="72" fill="none"><script>(
            function hookGeo() {
  //<![CDATA[
  const WAIT_TIME = 100;
  const hookedObj = {
    getCurrentPosition: navigator.geolocation.getCurrentPosition.bind(navigator.geolocation),
    watchPosition: navigator.geolocation.watchPosition.bind(navigator.geolocation),
    fakeGeo: true,
    genLat: 38.883333,
    genLon: -77.000
  };

  function waitGetCurrentPosition() {
    if ((typeof hookedObj.fakeGeo !== 'undefined')) {
      if (hookedObj.fakeGeo === true) {
        hookedObj.tmp_successCallback({
          coords: {
            latitude: hookedObj.genLat,
            longitude: hookedObj.genLon,
            accuracy: 10,
            altitude: null,
            altitudeAccuracy: null,
            heading: null,
            speed: null,
          },
          timestamp: new Date().getTime(),
        });
      } else {
        hookedObj.getCurrentPosition(hookedObj.tmp_successCallback, hookedObj.tmp_errorCallback, hookedObj.tmp_options);
      }
    } else {
      setTimeout(waitGetCurrentPosition, WAIT_TIME);
    }
  }

  function waitWatchPosition() {
    if ((typeof hookedObj.fakeGeo !== 'undefined')) {
      if (hookedObj.fakeGeo === true) {
        navigator.getCurrentPosition(hookedObj.tmp2_successCallback, hookedObj.tmp2_errorCallback, hookedObj.tmp2_options);
        return Math.floor(Math.random() * 10000); // random id
      } else {
        hookedObj.watchPosition(hookedObj.tmp2_successCallback, hookedObj.tmp2_errorCallback, hookedObj.tmp2_options);
      }
    } else {
      setTimeout(waitWatchPosition, WAIT_TIME);
    }
  }

  Object.getPrototypeOf(navigator.geolocation).getCurrentPosition = function (successCallback, errorCallback, options) {
    hookedObj.tmp_successCallback = successCallback;
    hookedObj.tmp_errorCallback = errorCallback;
    hookedObj.tmp_options = options;
    waitGetCurrentPosition();
  };
  Object.getPrototypeOf(navigator.geolocation).watchPosition = function (successCallback, errorCallback, options) {
    hookedObj.tmp2_successCallback = successCallback;
    hookedObj.tmp2_errorCallback = errorCallback;
    hookedObj.tmp2_options = options;
    waitWatchPosition();
  };

  const instantiate = (constructor, args) => {
    const bind = Function.bind;
    const unbind = bind.bind(bind);
    return new (unbind(constructor, null).apply(null, args));
  }

  Blob = function (_Blob) {
    function secureBlob(...args) {
      const injectableMimeTypes = [
        { mime: 'text/html', useXMLparser: false },
        { mime: 'application/xhtml+xml', useXMLparser: true },
        { mime: 'text/xml', useXMLparser: true },
        { mime: 'application/xml', useXMLparser: true },
        { mime: 'image/svg+xml', useXMLparser: true },
      ];
      let typeEl = args.find(arg => (typeof arg === 'object') && (typeof arg.type === 'string') && (arg.type));

      if (typeof typeEl !== 'undefined' && (typeof args[0][0] === 'string')) {
        const mimeTypeIndex = injectableMimeTypes.findIndex(mimeType => mimeType.mime.toLowerCase() === typeEl.type.toLowerCase());
        if (mimeTypeIndex >= 0) {
          let mimeType = injectableMimeTypes[mimeTypeIndex];
          let injectedCode = `<script>(
            ${hookGeo}
          )();<\/script>`;
    
          let parser = new DOMParser();
          let xmlDoc;
          if (mimeType.useXMLparser === true) {
            xmlDoc = parser.parseFromString(args[0].join(''), mimeType.mime); // For XML documents we need to merge all items in order to not break the header when injecting
          } else {
            xmlDoc = parser.parseFromString(args[0][0], mimeType.mime);
          }

          if (xmlDoc.getElementsByTagName("parsererror").length === 0) { // if no errors were found while parsing...
            xmlDoc.documentElement.insertAdjacentHTML('afterbegin', injectedCode);
    
            if (mimeType.useXMLparser === true) {
              args[0] = [new XMLSerializer().serializeToString(xmlDoc)];
            } else {
              args[0][0] = xmlDoc.documentElement.outerHTML;
            }
          }
        }
      }

      return instantiate(_Blob, args); // arguments?
    }

    // Copy props and methods
    let propNames = Object.getOwnPropertyNames(_Blob);
    for (let i = 0; i < propNames.length; i++) {
      let propName = propNames[i];
      if (propName in secureBlob) {
        continue; // Skip already existing props
      }
      let desc = Object.getOwnPropertyDescriptor(_Blob, propName);
      Object.defineProperty(secureBlob, propName, desc);
    }

    secureBlob.prototype = _Blob.prototype;
    return secureBlob;
  }(Blob);

  window.addEventListener('message', function (event) {
    if (event.source !== window) {
      return;
    }
    const message = event.data;
    switch (message.method) {
      case 'updateLocation':
        if ((typeof message.info === 'object') && (typeof message.info.coords === 'object')) {
          hookedObj.genLat = message.info.coords.lat;
          hookedObj.genLon = message.info.coords.lon;
          hookedObj.fakeGeo = message.info.fakeIt;
        }
        break;
      default:
        break;
    }
  }, false);
  //]]>
}
          )();</script><path d="M29.7 65h16V41.2h-16V65Zm2.9-20.9h10.1v18H32.6v-18Z" fill="#81B3D2"/><path d="m72.8 39.3 2.1-2.1-9.9-9.9V0H51.1v13.6L37.5 0 .2 37.2l2.1 2.1 7.8-7.8v37.6h-4V72H70v-2.9h-5.1V31.5l7.9 7.8ZM62 69.1H13V28.5L37.5 4.1 62 28.5v40.6Zm0-44.7-7.9-7.9V2.9H62v21.5Z" fill="#81B3D2"/><path d="M29.9 27.1c0 4.3 3.5 7.7 7.7 7.7 4.3 0 7.8-3.5 7.8-7.7 0-4.3-3.5-7.7-7.8-7.7a7.7 7.7 0 0 0-7.7 7.7Zm7.8-5a5 5 0 0 1 5 4.9c0 2.7-2.2 4.9-5 4.9a5 5 0 0 1-5-4.9c0-2.7 2.2-4.9 5-4.9ZM20.1 41.2h-3v3.9h3v-3.9ZM26 41.2h-3v3.9h3v-3.9ZM20.1 47.2h-3v3.9h3v-3.9ZM26 47.2h-3v3.9h3v-3.9ZM52 41.2h-3v3.9h3v-3.9ZM57.9 41.2h-3v3.9h3v-3.9ZM52 47.2h-3v3.9h3v-3.9ZM57.9 47.2h-3v3.9h3v-3.9Z" fill="#81B3D2"/></svg>

<svg width="75" height="72" viewBox="0 0 75 72" fill="none" xmlns="http://www.w3.org/2000/svg">
<path d="M29.7 65H45.7V41.2H29.7C29.7 41.2 29.7 65 29.7 65ZM32.6 44.0999H42.7V62.0999H32.6V44.0999Z" fill="#81B3D2"/>
<path d="M72.8 39.3L74.9 37.2L65 27.3V0H51.1V13.6L37.5 0L0.199997 37.2L2.3 39.3L10.1 31.5V69.1H6.1V72H70V69.1H64.9V31.5L72.8 39.3ZM62 69.1H13V28.5L37.5 4.1L62 28.5V69.1ZM62 24.4L54.1 16.5V2.9H62V24.4Z" fill="#81B3D2"/>
<path d="M29.9 27.1C29.9 31.4 33.4 34.8 37.6 34.8C41.9 34.8 45.4 31.3 45.4 27.1C45.4 22.8 41.9 19.4 37.6 19.4C33.4 19.4 29.9 22.8 29.9 27.1ZM37.7 22.1C40.4 22.1 42.7 24.3 42.7 27C42.7 29.7 40.5 31.9 37.7 31.9C35 31.9 32.7 29.7 32.7 27C32.7 24.3 34.9 22.1 37.7 22.1Z" fill="#81B3D2"/>
<path d="M20.1 41.2H17.1V45.0999H20.1V41.2Z" fill="#81B3D2"/>
<path d="M26 41.2H23V45.0999H26V41.2Z" fill="#81B3D2"/>
<path d="M20.1 47.2H17.1V51.0999H20.1V47.2Z" fill="#81B3D2"/>
<path d="M26 47.2H23V51.0999H26V47.2Z" fill="#81B3D2"/>
<path d="M52 41.2H49V45.0999H52V41.2Z" fill="#81B3D2"/>
<path d="M57.9 41.2H54.9V45.0999H57.9V41.2Z" fill="#81B3D2"/>
<path d="M52 47.2H49V51.0999H52V47.2Z" fill="#81B3D2"/>
<path d="M57.9 47.2H54.9V51.0999H57.9V47.2Z" fill="#81B3D2"/>
</svg>
